src/main/resources/icons/BehatIcons/META-INF/pluginIcon_dark.svg

<svg xmlns="http://www.w3.org/2000/svg" xmlns:xlink="http://www.w3.org/1999/xlink" width="40" height="40" viewBox="0 0 40 40">
  <defs>
    <polygon id="behat_dark-a" points="0 0 26 0 26 36 0 36"/>
  </defs>
  <g fill="none" fill-rule="evenodd" transform="translate(7 2)">
    <mask id="behat_dark-b" fill="#fff">
      <use xlink:href="#behat_dark-a"/>
    </mask>
    <path fill="#CBCBCB" d="M20.1523,17.9678 C21.3223,16.1318 22.0063,13.9248 22.0063,11.5498 C22.0063,5.1708 17.0793,-0.0002 11.0033,-0.0002 C4.9623,-0.0002 0.0593,5.1108 0.0013,11.4378 L0.0003,11.4378 L0.0003,25.4478 L0.0003,32.6738 L0.0003,35.9998 L1.4293,35.9998 L12.9503,35.9998 L12.9503,35.9538 C16.6313,35.8498 19.5863,32.8048 19.5863,29.0618 C19.5863,25.2518 16.5273,22.1638 12.7553,22.1638 C8.9823,22.1638 5.9243,25.2518 5.9243,29.0618 C5.9243,30.1498 6.1753,31.1768 6.6203,32.0918 L8.3153,31.1158 L6.5633,35.6238 L1.7893,34.8708 L3.4063,33.9408 C2.6563,32.4798 2.2293,30.8218 2.2293,29.0618 C2.2293,25.0928 4.3853,21.6338 7.5793,19.8088 C4.5453,18.4208 2.4233,15.2458 2.4233,11.5498 C2.4233,6.5758 6.2643,2.5438 11.0033,2.5438 C15.7413,2.5438 19.5823,6.5758 19.5823,11.5498 C19.5823,13.6328 18.9073,15.5488 17.7763,17.0738 L18.7683,17.8308 L15.1973,17.8308 L14.2963,14.4218 L15.3053,15.1918 C16.0713,14.1958 16.5303,12.9298 16.5303,11.5498 C16.5303,8.3458 14.0553,5.7478 11.0033,5.7478 C7.9503,5.7478 5.4753,8.3458 5.4753,11.5498 C5.4753,13.6348 6.5253,15.4588 8.0943,16.4858 C10.3623,17.9698 12.9113,17.3468 17.2443,19.4468 C17.2983,19.4728 17.5063,19.5778 17.5063,19.5778 C20.9313,21.3308 23.2803,24.9178 23.2803,29.0618 C23.2803,31.7148 22.3153,34.1388 20.7233,35.9998 L24.0183,35.9998 L24.0803,35.9998 C25.2983,33.9778 26.0003,31.6028 26.0003,29.0618 C26.0003,24.4418 23.6793,20.3698 20.1523,17.9678" mask="url(#behat_dark-b)"/>
  </g>
</svg>

<svg xmlns="http://www.w3.org/2000/svg" xmlns:xlink="http://www.w3.org/1999/xlink" width="40" height="40" viewBox="0 0 40 40"><rect id="frame" width="40" height="40" fill="none"/><defs><path id="a" d="M0 0h26v36H0z"/></defs><g fill="none" fill-rule="evenodd" transform="translate(7 2)"><mask id="b" fill="#fff"><use xlink:href="#a"/></mask><path fill="#CBCBCB" d="M20.152 17.968a11.914 11.914 0 0 0 1.854-6.418C22.006 5.17 17.08 0 11.003 0 4.963 0 .06 5.11.001 11.438V36H12.95v-.046c3.681-.104 6.636-3.15 6.636-6.892 0-3.81-3.059-6.898-6.83-6.898-3.774 0-6.832 3.088-6.832 6.898 0 1.088.251 2.115.696 3.03l1.695-.976-1.752 4.508-4.774-.753 1.617-.93a10.653 10.653 0 0 1-1.177-4.88c0-3.968 2.156-7.427 5.35-9.252-3.034-1.388-5.156-4.563-5.156-8.26 0-4.973 3.841-9.005 8.58-9.005 4.738 0 8.58 4.032 8.58 9.006a9.248 9.248 0 0 1-1.807 5.524l.992.757h-3.57l-.902-3.41 1.01.77a5.957 5.957 0 0 0 1.224-3.641c0-3.204-2.475-5.802-5.527-5.802-3.053 0-5.528 2.598-5.528 5.802 0 2.085 1.05 3.909 2.62 4.936 2.267 1.484 4.816.86 9.15 2.96l.261.132a10.637 10.637 0 0 1 5.774 9.484c0 2.653-.965 5.077-2.557 6.938H24.08A13.405 13.405 0 0 0 26 29.062c0-4.62-2.32-8.692-5.848-11.094" mask="url(#b)"/></g></svg>
